X:1
T:Title
%%score 1 2
L:1/8
Q:1/4=94
M:4/4
K:Bb
V:1 treble nm="Grand Piano, Soprano"
V:2 bass nm="Choir Pad, Round the Throne in Glory"
V:1
 [DF]>[EG] [DF]>[EG] [DF]2 [B,D]2 | [DB]>[DB] [Ec]>[DB] [DF]4 | [EG]>[EG] [EG]>[EG] [GB]2 [EG]2 | %3
w: By~R.~A.~Glenn,~1877 * * * * *|||
 [DF]>[EG] [DF]>[B,D] [DF]4 | [DF]>[DF] [DF]>[EG] [DF]2 [B,D]2 | [DB]>[Fd] [Fc]>[FB] [EG]4 | %6
w: |||
 [EG]>[EG] [EG]>[EG] [GB]2 [EG]2 | [DF]>[DF] [Fd]>[Ec] [DB]4 | [Fc]>[Fc] [Fc]>[Fc] [Fc]2 [FA]2 | %9
w: |||
 (3[Fd][Fd][Fd] [Fd]>[Ec] [DB]4 | [EG]>[EG] [EG]>[EG] [GB]2 [EG]2 | [DF]>[EG] [DF]>[B,D] [DF]4 | %12
w: |||
 [DF]>[DF] [DF]>[EG] [DF]2 [B,D]2 | [DB]>[Fd] [Fc]>[FB] [EG]4 | [EG]>[EG] [EG]>[EG] [GB]2 [EG]2 | %15
w: |||
 [DF]>[DF] [Fd]>[Ec] [DB]4- | [DB]4 z4 |] %17
w: ||
V:2
 [B,,B,]>[B,,B,] [B,,B,]>[B,,B,] [B,,B,]2 [B,,F,]2 | [B,,B,]>[B,,B,] [B,,B,]>[B,,B,] [B,,B,]4 | %2
 [E,B,]>[E,B,] [E,B,]>[E,B,] [E,B,]2 [E,B,]2 | [B,,B,]>[B,,B,] [B,,B,]>[B,,F,] [B,,B,]4 | %4
 [B,,B,]>[B,,B,] [B,,B,]>[B,,B,] [B,,B,]2 [B,,F,]2 | [B,,B,]>[B,,B,] [C,A,]>[D,B,] [E,B,]4 | %6
 [E,B,]>[E,B,] [E,B,]>[E,B,] [E,B,]2 [E,B,]2 | [F,B,]>[F,B,] [F,B,]>[F,A,] [B,,B,]4 | %8
 [F,A,]>[F,A,] [F,A,]>[F,A,] [F,A,]2 [F,C]2 | (3[B,,B,][B,,B,][B,,B,] [B,,B,]>[B,,B,] [B,,B,]4 | %10
 [E,B,]>[E,B,] [E,B,]>[E,B,] [E,B,]2 [E,B,]2 | [B,,B,]>[B,,B,] [B,,B,]>[B,,F,] [B,,B,]4 | %12
 [B,,B,]>[B,,B,] [B,,B,]>[B,,B,] [B,,B,]2 [B,,F,]2 | [B,,B,]>[B,,B,] [C,A,]>[D,B,] [E,B,]4 | %14
 [E,B,]>[E,B,] [E,B,]>[E,B,] [E,B,]2 [E,B,]2 | [F,B,]>[F,B,] [F,B,]>[F,A,] [B,,B,]4- | %16
 [B,,B,]4 z4 |] %17

